!!!OTL: Der Postillon (2-45), S. 123f
!!!id: K1128
**kern
*clefG2
*k[f#]
*G:
{8d
=1
4g
8g
4g
8a
=2
4b
8b
4b}
=3
{8g
=4
4a
8a
4cc
8f#
=5
4.a
8g}
8r
=6
{8d
=7
4g
8g
4g
8a
=8
4b
8b
4b}
=9
{8g
=10
4a
8a
4cc
8f#
=11
4.a
8g}
8r
=12
{8a
=13
4a
8a
4a
8g
=14
4f#
8a
4d}
=15
{8a
=16
4a
8a
4a
8g
=17
4f#
8a
4d}
=18
{8dd
=19
4.dd
4b
8dd
=20
4.dd
4b}
=21
{8b
=22
4g
8b
4g
8b
=23
8d
16d
16d
8d
4g}
=24
{8b
=25
4g
8b
4g
8b
=26
8d
16d
16d
8d
4g}
==
*-
!!!minrhy: 16
!!!meters: 6/8 ]  ZZ[9
!!!cut: Der Postillon (2-45), S. 123f
!!!reg: Luxemburg
!!!trd: KINTZELE, Guillaume: An der Ucht, Bd. 2, Luxemburg 1927
!!!rhy1: X_  X__X_X__X_  X__X_X__   (x2)
!!!rhy2: X_  X__X_X__X_  X__.X_0
!!!key: K1128  16  G 6/8 ]  ZZ[9
!!!mod: SECHSTONSKALA DUR ?]  AMBITUS[8
!!!kad: 3131-5-5311
!!!akz: 1133_2421_1133_2421_22-7-5_22-7-5_5353_11-51_11-51_
!!!fot: 'a__b__a__b__c__c__d__e__e__
!!!for: 'a__b__a__b__a__a__c__d__d__
!!!fok: '/__^__/__^__\__\__\__Vd_Vd_
!! PHRAS[AUFTAKTIG]
!!!fkt: Scherzlied, Liebe
!! KINTZELE
!! PR[10] 2K[12] 2G[12] 3K[0] 3G[0] 4A[8] 4Ü[2] 5A[0] 6K[0] 6G[2]
!! 7K[0] 7G[0] 8A[4] MEHR[0] SI[40] ABS[50] SR[24] SP[16]
!! ST[12] 2k[12] 2g[26] 3k[0] 3g[0] 4d[8] 4ü[0] 5d[0] 6k[2] 6g[2]
!! 7k[0] 7g[0] 8d[0] mehr[0] si[50] dm[-10] sr[38] sp[12]
!! 1F[71] 2F[24] 3F[6] 4F[0] LF[0] 2P[0] 3P[0] 4P[0] TRI[0] DF[3] AB[51]
!! TF[0] U3K[0] U3[0] U4[0] U4Ü[0] U5[0] U6K[0] U6[0] U7K[0] U7[0]
!! N1[0] N2K[0] N2[2] N3K[0] N3[10] N4[10] N4Ü[0] N5[8] N6K[0] N6[10]
!!!n7k: 0] N7[14] O1[12] O2K[0] O2[14] O3K[0] O3[14] HÖ[8
